dist/img/partners/partner_4.svg

<svg width="196" height="65" viewBox="0 0 196 65" fill="none" xmlns="http://www.w3.org/2000/svg">
<path fill-rule="evenodd" clip-rule="evenodd" d="M0 52.726C0 55.2426 1.6302 56.8748 4.14321 56.8748L16.2487 56.875C23.4702 56.875 29.3777 54.4281 33.394 50.1446H0V52.726ZM16.2487 10.8335L4.14321 10.8333C1.6302 10.8333 0 12.4657 0 14.9823V17.5637H33.394C29.3777 13.2802 23.4702 10.8335 16.2487 10.8335ZM26.8132 40.4145C26.8132 42.4504 28.1376 43.7714 30.1795 43.7714H37.4333C38.2556 41.728 38.808 39.4817 39.0648 37.0576H30.1795C28.1376 37.0576 26.8132 38.3783 26.8132 40.4145ZM16.7588 27.3104C16.7588 29.3466 18.0833 30.6673 20.1252 30.6673H39.0648C38.808 28.2432 38.2556 25.9968 37.4333 23.9535H20.1252C18.0833 23.9535 16.7588 25.2742 16.7588 27.3104ZM20.1229 40.4145C20.1229 38.3783 18.7985 37.0576 16.7565 37.0576H0V43.7714H16.7565C18.7985 43.7714 20.1229 42.4507 20.1229 40.4145ZM10.0686 27.3104C10.0686 25.2742 8.74414 23.9535 6.7022 23.9535H0V30.6673H6.7022C8.74414 30.6673 10.0686 29.3466 10.0686 27.3104Z" fill="#0062FF"/>
<path fill-rule="evenodd" clip-rule="evenodd" d="M85.1877 33.1612C85.7271 30.5338 87.4695 29.1979 89.7597 29.1979C92.0302 29.1979 93.6905 30.5937 94.2201 33.1612H85.1877ZM89.8842 24.6461C84.0529 24.6461 80.4258 29.3235 80.4258 35.0447C80.4258 40.9701 84.3016 45.3649 90.0621 45.3649C94.0349 45.3649 96.4448 43.5205 97.9362 41.1979L94.2277 38.8194C93.2953 40.0981 91.8034 40.7738 90.2043 40.7738C87.5884 40.7738 85.8367 39.5442 85.2397 37.0852H95.0282C95.0273 37.0884 95.0267 37.0915 95.0258 37.095L98.5941 37.116C98.7295 36.4689 98.8092 35.8003 98.8092 35.0447C98.8092 30.0613 95.7512 24.6461 89.8842 24.6461Z" fill="#0062FF"/>
<path fill-rule="evenodd" clip-rule="evenodd" d="M65.4891 40.7606C61.9012 40.7606 59.7443 38.1837 59.7443 35.0052C59.7443 31.8268 61.9425 29.2502 65.4891 29.2502C69.0357 29.2502 71.234 31.8268 71.234 35.0052C71.234 38.1837 69.0771 40.7606 65.4891 40.7606ZM70.843 27.688C69.4104 25.9641 67.3762 24.9074 64.8512 24.9074C59.2074 24.9074 55.1484 29.4871 55.1484 35.1361C55.1484 40.7853 59.1689 45.3647 64.8512 45.3647C67.3762 45.3647 69.4104 44.308 70.843 42.5842V44.861H75.8298V17.7397H70.843V27.688Z" fill="#0062FF"/>
<path fill-rule="evenodd" clip-rule="evenodd" d="M114.058 34.6657C115.411 35.6132 116.269 37.0339 116.269 38.9087C116.269 42.6977 113.72 45.3265 108.954 45.3265C104.468 45.3265 102.063 43.024 101.105 40.6986L105.222 38.2902C105.222 38.2902 105.777 40.8032 108.88 40.8032C110.801 40.8032 111.392 39.9525 111.392 39.2013C111.392 38.8533 111.282 38.2129 109.915 37.6715C107.169 36.5845 101.86 36.0968 101.86 31.1378C101.86 27.0786 105.036 24.9136 108.954 24.9136C112.617 24.9136 114.97 27.1971 115.864 28.9738L111.836 31.3312C111.836 31.3312 111.06 29.3594 108.991 29.3594C106.922 29.3594 106.737 30.5581 106.737 30.9059C106.737 31.9208 107.77 32.3375 109.988 32.9938C111.302 33.3822 112.651 33.7351 114.062 34.6621C114.06 34.6633 114.059 34.6645 114.058 34.6657ZM195.321 30.2487H191.146V38.29C191.146 40.8032 193.584 40.2618 195.321 40.2618V44.7851C195.321 44.7851 194.406 44.9398 192.808 44.9398C189.262 44.9398 186.38 43.8574 186.38 38.29V30.2487H183.165V25.4546H186.38V20.0421H191.146V25.4546H195.321V30.2487ZM128.118 40.4552C130.096 40.4552 131.617 39.4679 132.385 37.8485L136.517 40.3273C134.898 43.2981 131.882 45.365 128.118 45.365C122.41 45.365 118.42 40.7955 118.42 35.1587C118.42 29.5217 122.447 24.9522 128.118 24.9522C131.826 24.9522 134.831 26.9854 136.468 29.9167L132.345 32.4521C131.562 30.8538 130.053 29.862 128.118 29.862C125.234 29.862 123.186 32.2334 123.186 35.1587C123.186 38.0838 125.215 40.4552 128.118 40.4552Z" fill="#0062FF"/>
<path fill-rule="evenodd" clip-rule="evenodd" d="M171.933 40.4021C168.829 40.4021 166.962 37.9772 166.962 34.9861C166.962 31.9951 168.865 29.5704 171.933 29.5704C175.002 29.5704 176.905 31.9951 176.905 34.9861C176.905 37.9772 175.038 40.4021 171.933 40.4021ZM172.526 24.8456C177.766 24.8456 181.535 29.3859 181.535 34.9861C181.535 40.5866 177.802 45.1266 172.526 45.1266C170.181 45.1266 168.293 44.079 166.962 42.37V52.271H162.332V25.3836H166.962V27.6022C168.293 25.8932 170.181 24.8456 172.526 24.8456ZM153.431 44.6272V25.4218H158.061V44.6272H153.431ZM144.802 28.7024C145.696 26.3751 147.516 25.044 150.258 25.038V30.5691C147.043 30.2437 144.721 31.9541 144.806 35.9944C144.804 35.9916 144.803 35.9885 144.802 35.9853V44.6272H140.172V25.422H144.802V28.7024ZM153.431 22.8588V17.7397H158.214V22.8588H153.431Z" fill="#0062FF"/>
</svg>

<svg width="196" height="65" viewBox="0 0 196 65" fill="none" xmlns="http://www.w3.org/2000/svg"><path fill-rule="evenodd" clip-rule="evenodd" d="M0 52.726c0 2.517 1.63 4.149 4.143 4.149H16.25c7.221 0 13.129-2.447 17.145-6.73H0v2.581zm16.249-41.892H4.143C1.63 10.833 0 12.465 0 14.981v2.582h33.394c-4.016-4.284-9.924-6.73-17.145-6.73zm10.564 29.58c0 2.036 1.325 3.357 3.367 3.357h7.253c.823-2.043 1.375-4.29 1.632-6.713H30.18c-2.042 0-3.367 1.32-3.367 3.356zM16.76 27.31c0 2.037 1.324 3.357 3.366 3.357h18.94c-.257-2.424-.81-4.67-1.632-6.714H20.125c-2.042 0-3.366 1.321-3.366 3.357zm3.364 13.104c0-2.036-1.325-3.356-3.367-3.356H0v6.713h16.756c2.043 0 3.367-1.32 3.367-3.357zM10.069 27.31c0-2.036-1.325-3.357-3.367-3.357H0v6.714h6.702c2.042 0 3.367-1.32 3.367-3.357zm75.119 5.851c.54-2.627 2.281-3.963 4.572-3.963 2.27 0 3.93 1.396 4.46 3.963h-9.032zm4.696-8.515c-5.831 0-9.458 4.677-9.458 10.399 0 5.925 3.876 10.32 9.636 10.32 3.973 0 6.383-1.845 7.874-4.167l-3.708-2.379c-.933 1.28-2.425 1.955-4.024 1.955-2.616 0-4.367-1.23-4.964-3.689h9.788l-.002.01 3.568.021a9.925 9.925 0 00.215-2.071c0-4.984-3.058-10.399-8.925-10.399zM65.49 40.76c-3.589 0-5.746-2.576-5.746-5.755 0-3.178 2.199-5.755 5.745-5.755 3.547 0 5.745 2.577 5.745 5.755 0 3.179-2.157 5.756-5.745 5.756zm5.353-13.072c-1.433-1.724-3.467-2.78-5.992-2.78-5.644 0-9.703 4.58-9.703 10.228 0 5.65 4.02 10.229 9.703 10.229 2.525 0 4.56-1.057 5.992-2.78v2.276h4.987V17.74h-4.987v9.948zm43.215 6.978c1.353.947 2.211 2.368 2.211 4.243 0 3.789-2.549 6.418-7.315 6.418-4.486 0-6.891-2.303-7.849-4.628l4.117-2.409s.555 2.513 3.658 2.513c1.921 0 2.512-.85 2.512-1.602 0-.348-.11-.988-1.477-1.53-2.746-1.087-8.055-1.574-8.055-6.533 0-4.06 3.176-6.224 7.094-6.224 3.663 0 6.016 2.283 6.91 4.06l-4.028 2.357s-.776-1.972-2.845-1.972-2.254 1.2-2.254 1.547c0 1.015 1.033 1.431 3.251 2.088 1.314.388 2.663.741 4.074 1.668a.014.014 0 00-.004.004zm81.263-4.417h-4.175v8.041c0 2.513 2.438 1.972 4.175 1.972v4.523s-.915.155-2.513.155c-3.546 0-6.428-1.083-6.428-6.65v-8.041h-3.215v-4.794h3.215v-5.413h4.766v5.413h4.175v4.794zm-67.203 10.206c1.978 0 3.499-.987 4.267-2.606l4.132 2.478c-1.619 2.971-4.635 5.038-8.399 5.038-5.708 0-9.698-4.57-9.698-10.206 0-5.637 4.027-10.207 9.698-10.207 3.708 0 6.713 2.033 8.35 4.965l-4.123 2.535c-.783-1.598-2.292-2.59-4.227-2.59-2.884 0-4.932 2.371-4.932 5.297 0 2.925 2.029 5.296 4.932 5.296zm43.815-.053c-3.104 0-4.971-2.425-4.971-5.416 0-2.99 1.903-5.416 4.971-5.416 3.069 0 4.972 2.425 4.972 5.416 0 2.991-1.867 5.416-4.972 5.416zm.593-15.556c5.24 0 9.009 4.54 9.009 10.14 0 5.6-3.733 10.14-9.009 10.14-2.345 0-4.233-1.047-5.564-2.756v9.901h-4.63V25.384h4.63v2.218c1.331-1.709 3.219-2.756 5.564-2.756zm-19.095 19.781V25.422h4.63v19.205h-4.63zm-8.629-15.925c.894-2.327 2.714-3.658 5.456-3.664v5.531c-3.215-.325-5.537 1.385-5.452 5.425a.03.03 0 01-.004-.009v8.642h-4.63V25.422h4.63v3.28zm8.629-5.843v-5.12h4.783v5.12h-4.783z" fill="#0062FF"/></svg>
